X: 1
T: Das Horst Wessel Lied
T: The Horst Wessel Song
C: Tune: Old soldier's song
%C: Words by Horst Wessel, 1927
N: A variant of an 18th-century ballad.
N: The Spanish song "Mi camisa azul" uses this melody.
N: The tune is distantly related to the hymn How Great Thou Art.
N: This is the version sung by Hitler's troops.
N: Many parodies of this song apeared in the 1920's and 30's.
M: 4/4
L: 1/4
K: Bb
%
[| "F7"zFFE | "Bb"D3F | "Gm"B>AGD | "Cm"F2E2 \
|  "Cm"zEED | "F7"C3F | "F7"F>FGF | "Bb"D3z ||
|: "Bb"zFDF | "Bb"B>dd[dF] | "Bb7"[cE][BD][AC][BD] | "Eb"[e2G2][e2G2] \
| "(Cm)"zccB | "Bb"[d3F3]B | "F7"A>AGA | "Bb"B3z :|
